public/Img/About/values__auth.svg

<svg width="48" height="48" viewBox="0 0 48 48" fill="none" xmlns="http://www.w3.org/2000/svg">
<path fill-rule="evenodd" clip-rule="evenodd" d="M44 18C44 19.1046 43.1046 20 42 20C39.7909 20 38 21.7909 38 24C38 26.2091 39.7909 28 42 28C43.1046 28 44 28.8954 44 30V34C44 37.3137 41.3137 40 38 40H30V34C30 32.8954 29.1046 32 28 32C26.8954 32 26 32.8954 26 34V40H10C6.68629 40 4 37.3137 4 34V30C4 28.8954 4.89543 28 6 28C8.20914 28 10 26.2091 10 24C10 21.7909 8.20914 20 6 20C4.89543 20 4 19.1046 4 18V14C4 10.6863 6.68629 8 10 8H26V14C26 15.1046 26.8954 16 28 16C29.1046 16 30 15.1046 30 14V8H38C41.3137 8 44 10.6863 44 14V18ZM28 28C29.1046 28 30 27.1046 30 26V22C30 20.8954 29.1046 20 28 20C26.8954 20 26 20.8954 26 22V26C26 27.1046 26.8954 28 28 28Z" fill="#6B7CFF"/>
</svg>

<svg width="48" height="48" fill="none" xmlns="http://www.w3.org/2000/svg"><path fill-rule="evenodd" clip-rule="evenodd" d="M44 18a2 2 0 0 1-2 2 4 4 0 0 0 0 8 2 2 0 0 1 2 2v4a6 6 0 0 1-6 6h-8v-6a2 2 0 1 0-4 0v6H10a6 6 0 0 1-6-6v-4a2 2 0 0 1 2-2 4 4 0 0 0 0-8 2 2 0 0 1-2-2v-4a6 6 0 0 1 6-6h16v6a2 2 0 1 0 4 0V8h8a6 6 0 0 1 6 6v4ZM28 28a2 2 0 0 0 2-2v-4a2 2 0 1 0-4 0v4a2 2 0 0 0 2 2Z" fill="#6B7CFF"/></svg>
